X:119
M:4/4
T:Icehouse
C: Matt Gordon
R:reel
K:A
"A (D)"a3a3 a2-|a2 a2fe ce | fece feae |fecA B A3 | 
"A(F#m)"a3a3 a2-|a2 a2fece | fece fece |"E"BABc "A"A2z2 :|
|:"E"B3c3 d2-|d2d2cB A2 | BABA cAc2 |BABc B"A"A3 |
|1"E"B3c3 d2-|d2d2cB A2 | BABA cAcA |BABc "A"A2 z2 :|
|2"E"B3c3 d2-|d2d2c2c2  | d2d2e2e2 |f2f2g2g2|]
